src/icons/svg/dashboard.svg

<?xml version="1.0" encoding="UTF-8" standalone="no"?>
<svg width="128px" height="128px" viewBox="0 0 128 128" version="1.1" xmlns="http://www.w3.org/2000/svg" xmlns:xlink="http://www.w3.org/1999/xlink">
    <!-- Generator: Sketch 40 (33762) - http://www.bohemiancoding.com/sketch -->
    <title>dashboard</title>
    <desc>Created with Sketch.</desc>
    <defs></defs>
    <g id="Page-1" stroke="none" stroke-width="1" fill="none" fill-rule="evenodd">
        <g id="dashboard" fill="#000000">
            <path d="M27.4285714,81.4566104 C27.4285714,78.2461993 26.5357142,75.5052352 24.75,73.2337179 C22.9642857,70.9622006 20.8095238,69.826442 18.2857142,69.8264419 C15.7619047,69.8264418 13.6071428,70.9622004 11.8214286,73.2337179 C10.0357145,75.5052354 9.14285729,78.2461995 9.14285712,81.4566104 C9.14285696,84.6670213 10.0357141,87.4079855 11.8214286,89.6795031 C13.6071431,91.9510207 15.761905,93.0867793 18.2857142,93.086779 C20.8095235,93.0867787 22.9642854,91.95102 24.75,89.6795031 C26.5357146,87.4079862 27.4285717,84.6670219 27.4285714,81.4566104 L27.4285714,81.4566104 Z M41.1428571,40.7510204 C41.1428571,37.5406093 40.25,34.7996451 38.4642858,32.5281278 C36.6785715,30.2566106 34.5238096,29.1208519 32,29.1208518 C29.4761904,29.1208517 27.3214285,30.2566104 25.5357142,32.5281278 C23.75,34.7996453 22.8571429,37.5406095 22.8571429,40.7510204 C22.8571429,43.9614312 23.75,46.7023955 25.5357143,48.973913 C27.3214285,51.2454306 29.4761904,52.3811892 32,52.3811889 C34.5238096,52.3811886 36.6785715,51.24543 38.4642858,48.973913 C40.25,46.7023961 41.1428571,43.9614319 41.1428571,40.7510204 L41.1428571,40.7510204 Z M71.7142858,84.4550133 L78.9285714,49.7462289 C79.2142856,48.1713103 79.0357142,46.7023957 78.3928571,45.3394853 C77.75,43.9765749 76.8333334,43.0831115 75.6428571,42.6590949 C74.4523809,42.2350783 73.3095238,42.4319432 72.2142858,43.2496894 C71.1190477,44.0674357 70.404762,45.2637682 70.0714286,46.8386868 L62.8571429,81.5474712 C60,81.8503402 57.452381,83.1678202 55.2142858,85.4999113 C52.9761905,87.8320024 51.4761905,90.8152618 50.7142858,94.4496894 C49.7619048,99.1138716 50.2380953,103.535759 52.1428571,107.71535 C54.047619,111.894942 56.8333332,114.590476 60.5,115.801952 C64.1666667,117.013428 67.6428572,116.40769 70.9285714,113.984738 C74.2142855,111.561786 76.3333332,108.018219 77.2857142,103.354037 C78.047619,99.7196096 77.9047619,96.1760426 76.8571429,92.7233363 C75.8095239,89.2706299 74.0952382,86.5145223 71.7142857,84.4550133 L71.7142858,84.4550133 Z M118.857143,81.4566104 C118.857143,78.2461993 117.964286,75.5052352 116.178571,73.2337179 C114.392857,70.9622006 112.238095,69.826442 109.714286,69.8264419 C107.190476,69.8264418 105.035714,70.9622004 103.25,73.2337179 C101.464286,75.5052354 100.571428,78.2461995 100.571429,81.4566104 C100.571429,84.6670213 101.464286,87.4079855 103.25,89.6795031 C105.035714,91.9510207 107.190476,93.0867793 109.714286,93.086779 C112.238096,93.0867787 114.392857,91.95102 116.178571,89.6795031 C117.964285,87.4079862 118.857143,84.6670219 118.857143,81.4566104 L118.857143,81.4566104 Z M73.1428571,23.3057676 C73.1428571,20.0953565 72.25,17.3543923 70.4642857,15.0828749 C68.6785715,12.8113575 66.5238096,11.6755989 64,11.6755989 C61.4761904,11.6755989 59.3214285,12.8113575 57.5357142,15.0828749 C55.75,17.3543923 54.8571429,20.0953565 54.8571429,23.3057676 C54.8571429,26.5161787 55.75,29.2571429 57.5357142,31.5286601 C59.3214285,33.8001774 61.4761904,34.9359361 64,34.9359362 C66.5238096,34.9359363 68.6785715,33.8001776 70.4642857,31.5286601 C72.25,29.2571426 73.1428571,26.5161785 73.1428571,23.3057676 L73.1428571,23.3057676 Z M105.142857,40.7510204 C105.142857,37.5406093 104.25,34.7996451 102.464286,32.5281278 C100.678571,30.2566106 98.5238096,29.1208519 96,29.1208518 C93.4761904,29.1208517 91.3214285,30.2566104 89.5357142,32.5281278 C87.75,34.7996453 86.8571429,37.5406095 86.8571429,40.7510204 C86.8571429,43.9614312 87.75,46.7023955 89.5357142,48.973913 C91.3214285,51.2454306 93.4761904,52.3811892 96,52.3811889 C98.5238096,52.3811886 100.678572,51.24543 102.464286,48.973913 C104.25,46.7023961 105.142857,43.9614319 105.142857,40.7510204 L105.142857,40.7510204 Z M128,81.4566104 C128,97.2663708 124.642857,111.894942 117.928571,125.342325 C117.023809,127.098965 115.738095,127.977285 114.071429,127.977285 L13.9285714,127.977285 C12.2619047,127.977285 10.9761905,127.098965 10.0714286,125.342325 C3.35714288,111.955516 0,97.3269447 0,81.4566104 C0,70.4321798 1.69047621,59.8923395 5.07142863,49.8370896 C8.45238104,39.7818396 13.0000001,31.119787 18.7142858,23.8509317 C24.4285714,16.5820764 31.2380952,10.797279 39.1428571,6.49653951 C47.047619,2.19580004 55.3333333,0.0454303006 64,0.0454303006 C72.6666667,0.0454303006 80.952381,2.19580004 88.8571429,6.49653951 C96.7619048,10.797279 103.571429,16.5820764 109.285714,23.8509317 C115,31.119787 119.547619,39.7818396 122.928571,49.8370896 C126.309524,59.8923395 128,70.4321798 128,81.4566104 L128,81.4566104 Z" id="Shape"></path>
        </g>
    </g>
</svg>

<svg width="128" height="128" xmlns="http://www.w3.org/2000/svg"><path d="M27.429 81.457c0-3.21-.893-5.952-2.679-8.223-1.786-2.272-3.94-3.408-6.464-3.408-2.524 0-4.679 1.136-6.465 3.408-1.785 2.271-2.678 5.012-2.678 8.223 0 3.21.893 5.951 2.678 8.223 1.786 2.271 3.94 3.407 6.465 3.407 2.524 0 4.678-1.136 6.464-3.407 1.786-2.272 2.679-5.013 2.679-8.223zM41.143 40.75c0-3.21-.893-5.951-2.679-8.223-1.785-2.271-3.94-3.407-6.464-3.407-2.524 0-4.679 1.136-6.464 3.407-1.786 2.272-2.679 5.013-2.679 8.223 0 3.21.893 5.951 2.679 8.223 1.785 2.271 3.94 3.407 6.464 3.407 2.524 0 4.679-1.136 6.464-3.407 1.786-2.272 2.679-5.013 2.679-8.223zm30.571 43.704l7.215-34.709c.285-1.575.107-3.044-.536-4.407-.643-1.362-1.56-2.256-2.75-2.68-1.19-.424-2.333-.227-3.429.59-1.095.818-1.81 2.015-2.143 3.59l-7.214 34.708c-2.857.303-5.405 1.62-7.643 3.953-2.238 2.332-3.738 5.315-4.5 8.95-.952 4.664-.476 9.086 1.429 13.265 1.905 4.18 4.69 6.875 8.357 8.087 3.667 1.211 7.143.606 10.429-1.817 3.285-2.423 5.404-5.967 6.357-10.631.762-3.634.619-7.178-.429-10.63-1.047-3.453-2.762-6.21-5.143-8.269zm47.143-2.998c0-3.21-.893-5.952-2.678-8.223-1.786-2.272-3.94-3.408-6.465-3.408-2.524 0-4.678 1.136-6.464 3.408-1.786 2.271-2.679 5.012-2.679 8.223 0 3.21.893 5.951 2.679 8.223 1.786 2.271 3.94 3.407 6.464 3.407 2.524 0 4.679-1.136 6.465-3.407 1.785-2.272 2.678-5.013 2.678-8.223zm-45.714-58.15c0-3.21-.893-5.952-2.679-8.223-1.785-2.272-3.94-3.407-6.464-3.407-2.524 0-4.679 1.135-6.464 3.407-1.786 2.271-2.679 5.012-2.679 8.223 0 3.21.893 5.951 2.679 8.223 1.785 2.271 3.94 3.407 6.464 3.407 2.524 0 4.679-1.136 6.464-3.407 1.786-2.272 2.679-5.013 2.679-8.223zm32 17.445c0-3.21-.893-5.951-2.679-8.223-1.785-2.271-3.94-3.407-6.464-3.407-2.524 0-4.679 1.136-6.464 3.407-1.786 2.272-2.679 5.013-2.679 8.223 0 3.21.893 5.951 2.679 8.223 1.785 2.271 3.94 3.407 6.464 3.407 2.524 0 4.679-1.136 6.464-3.407 1.786-2.272 2.679-5.013 2.679-8.223zM128 81.457c0 15.81-3.357 30.438-10.071 43.885-.905 1.757-2.19 2.635-3.858 2.635H13.93c-1.667 0-2.953-.878-3.858-2.635C3.357 111.956 0 97.327 0 81.457c0-11.025 1.69-21.565 5.071-31.62S13 31.12 18.714 23.851c5.715-7.269 12.524-13.054 20.429-17.354C47.048 2.196 55.333.045 64 .045c8.667 0 16.952 2.15 24.857 6.452 7.905 4.3 14.714 10.085 20.429 17.354 5.714 7.269 10.262 15.93 13.643 25.986 3.38 10.055 5.071 20.595 5.071 31.62z" fill-rule="evenodd"/></svg>
